icons/1_Primary/Mattermost.svg

<svg xmlns="http://www.w3.org/2000/svg" viewBox="0 0 1024 1024">
   <circle cx="512" cy="512" r="512" style="fill:#1e325c"/>
   <path d="M661.89 305.61c88 63.86 128.34 179.76 91.65 288.16-45.16 133.39-189.91 204.93-323.31 159.77S225.3 563.63 270.46 430.23C307.21 321.66 409.94 254.07 518.82 257l-34.9 41.23C419.33 309.93 363.55 354 341.63 418.8c-32.63 96.34 22.05 201.91 122.1 235.77s207.6-16.78 240.21-113.12c21.85-64.54 4.52-133.21-39.37-181.7l-2.69-54.14Zm-62.53 159.75-1.85-75.69-1.51-43.55-1-37.73s.21-18.19-.43-22.47a6.92 6.92 0 0 0-.75-2.27l-.13-.27-.15-.23a5.86 5.86 0 0 0-7.47-2.46h-.08l-.45.23a7 7 0 0 0-1.86 1.29c-3.1 3-14 17.59-14 17.59L546 329.19l-27.63 33.7-47.44 59s-21.77 27.17-17 60.62 29.68 49.74 49 56.27 48.94 8.69 73.08-15 23.35-58.46 23.35-58.46Z" style="fill:#fff;fill-rule:evenodd"/>
</svg>

<svg width="1024" height="1024" viewBox="0 0 1024 1024" fill="none" xmlns="http://www.w3.org/2000/svg">
<g clip-path="url(#clip0_2_2775)">
<path d="M512 1024C794.77 1024 1024 794.77 1024 512C1024 229.23 794.77 0 512 0C229.23 0 0 229.23 0 512C0 794.77 229.23 1024 512 1024Z" fill="#54688C"/>
<path fill-rule="evenodd" clip-rule="evenodd" d="M661.89 305.61C749.89 369.47 790.23 485.37 753.54 593.77C708.38 727.16 563.63 798.7 430.23 753.54C296.83 708.38 225.3 563.63 270.46 430.23C307.21 321.66 409.94 254.07 518.82 257L483.92 298.23C419.33 309.93 363.55 354 341.63 418.8C309 515.14 363.68 620.71 463.73 654.57C563.78 688.43 671.33 637.79 703.94 541.45C725.79 476.91 708.46 408.24 664.57 359.75L661.88 305.61H661.89ZM599.36 465.36L597.51 389.67L596 346.12L595 308.39C595 308.39 595.21 290.2 594.57 285.92C594.453 285.126 594.2 284.357 593.82 283.65L593.69 283.38L593.54 283.15C592.821 281.887 591.659 280.935 590.279 280.481C588.898 280.026 587.398 280.101 586.07 280.69H585.99L585.54 280.92C584.854 281.246 584.226 281.682 583.68 282.21C580.58 285.21 569.68 299.8 569.68 299.8L546 329.19L518.37 362.89L470.93 421.89C470.93 421.89 449.16 449.06 453.93 482.51C458.7 515.96 483.61 532.25 502.93 538.78C522.25 545.31 551.87 547.47 576.01 523.78C600.15 500.09 599.36 465.32 599.36 465.32V465.36Z" fill="white"/>
</g>
<defs>
<clipPath id="clip0_2_2775">
<rect width="1024" height="1024" fill="white"/>
</clipPath>
</defs>
</svg>
